vinfonet2025/img/StatCash.svg

<svg xmlns="http://www.w3.org/2000/svg" width="512" height="512" style="shape-rendering:geometricPrecision;text-rendering:geometricPrecision;image-rendering:optimizeQuality;fill-rule:evenodd;clip-rule:evenodd"><path d="M92.5-.5h277q-20.312 23.644-22.5 55l-1 157q-101.805 5.128-149 95-39.846 94.922 23 176a608 608 0 0 1 20.5 21q-4.006 5.47-10 8h-9a39 39 0 0 0-5-2.5 608 608 0 0 0-21-20.5 608 608 0 0 0-21 20.5 39 39 0 0 0-5 2.5h-9q-13.765-9.997-25.5-23a263.5 263.5 0 0 1-24.5 23h-10a286 286 0 0 1-25.5-24 286 286 0 0 1-25.5 24h-10q-6.506-3.258-9.5-10a48178 48178 0 0 1 0-439Q37.29 22.172 74.5 5a190 190 0 0 1 18-5.5m99 77q16.224-1.022 18.5 15 .75 14.492.5 29a230.5 230.5 0 0 1 35 1.5q16.723 11.784 2 26a55 55 0 0 1-7 2q-14.991.75-30 .5.25 14.508-.5 29-3.832 19.789-22.5 12.5-6.367-4.583-6.5-12.5-.75-14.492-.5-29-15.009.25-30-.5-18.729-4.709-11.5-22.5a25.6 25.6 0 0 1 6.5-5.5 230.5 230.5 0 0 1 35-1.5 218.6 218.6 0 0 1 1.5-34q2.994-6.743 9.5-10m-91 150q55.503-.25 111 .5 11.707 5.671 8.5 18.5-3.31 8.538-12.5 9.5-51.5 1-103 0-15.86-3.453-12.5-19.5 2.532-6.278 8.5-9m0 60q35.004-.25 70 .5 16.45 10.278 4 25a20.5 20.5 0 0 1-8 3 961 961 0 0 1-62 0q-12.313-2.064-14-14.5 1.374-9.8 10-14m4 59q26.005-.25 52 .5 12.313 2.064 14 14.5-1.91 9.144-10 13.5-30 1-60 0-14.34-8.11-6.5-22.5 4.603-4.419 10.5-6" style="opacity:.99"/><path d="M417.5-.5h21q33.972 8.723 42.5 43 1 79.5 0 159-3.011 8.006-11.5 9.5-47.498.75-95 .5a5002 5002 0 0 1 1.5-170q9.024-32.772 41.5-42" style="opacity:.985"/><path d="M362.5 511.5h-33q-84.86-14.598-113.5-96-20.721-81.89 39.5-140.5 61.193-50.136 137-26 78.87 32.42 88.5 117.5 2.9 87.486-72.5 130.5-22.007 10.991-46 14.5m-21-210q17.08-1.907 19 15 15.09 2.845 19 17.5-2.266 16.761-19 14-7.467-6.157-17-5-6.399 2.049-4.5 8.5a696 696 0 0 0 27.5 13.5q32.823 23.623 10.5 57.5a50.9 50.9 0 0 1-15.5 11q-1.882 14.38-16 17-13.272-2.559-14-16-12.316-1.686-21.5-10-9.253-18.999 11.5-24l17 6.5q10.175 2.556 17.5-4.5 3.759-7.709-3.5-12.5a269 269 0 0 1-29-14q-27.447-26.447-1-54 4.179-3.09 9-4.5-.288-11.446 10-16" style="opacity:.984"/></svg>

<?xml version="1.0" encoding="UTF-8"?>
<!DOCTYPE svg PUBLIC "-//W3C//DTD SVG 1.1//EN" "http://www.w3.org/Graphics/SVG/1.1/DTD/svg11.dtd">
<svg xmlns="http://www.w3.org/2000/svg" version="1.1" width="512px" height="512px" style="shape-rendering:geometricPrecision; text-rendering:geometricPrecision; image-rendering:optimizeQuality; fill-rule:evenodd; clip-rule:evenodd" xmlns:xlink="http://www.w3.org/1999/xlink">
<g><path style="opacity:0.99" fill="#000000" d="M 92.5,-0.5 C 184.833,-0.5 277.167,-0.5 369.5,-0.5C 355.959,15.2629 348.459,33.5962 347,54.5C 346.667,106.833 346.333,159.167 346,211.5C 278.13,214.919 228.463,246.585 197,306.5C 170.436,369.781 178.103,428.448 220,482.5C 227.015,489.348 233.848,496.348 240.5,503.5C 237.829,507.147 234.496,509.814 230.5,511.5C 227.5,511.5 224.5,511.5 221.5,511.5C 219.981,510.59 218.315,509.757 216.5,509C 209.652,501.985 202.652,495.152 195.5,488.5C 188.348,495.152 181.348,501.985 174.5,509C 172.685,509.757 171.019,510.59 169.5,511.5C 166.5,511.5 163.5,511.5 160.5,511.5C 151.323,504.835 142.823,497.169 135,488.5C 127.239,496.766 119.073,504.433 110.5,511.5C 107.167,511.5 103.833,511.5 100.5,511.5C 91.5939,504.099 83.0939,496.099 75,487.5C 66.9061,496.099 58.4061,504.099 49.5,511.5C 46.1667,511.5 42.8333,511.5 39.5,511.5C 35.163,509.328 31.9964,505.995 30,501.5C 29.3333,355.167 29.3333,208.833 30,62.5C 34.8594,35.6147 49.6927,16.4481 74.5,5C 80.5308,2.83236 86.5308,0.999023 92.5,-0.5 Z M 191.5,76.5 C 202.316,75.819 208.482,80.819 210,91.5C 210.5,101.161 210.666,110.828 210.5,120.5C 222.221,120.113 233.887,120.613 245.5,122C 256.649,129.856 257.315,138.523 247.5,148C 245.212,148.822 242.878,149.489 240.5,150C 230.506,150.5 220.506,150.666 210.5,150.5C 210.666,160.172 210.5,169.839 210,179.5C 207.445,192.693 199.945,196.859 187.5,192C 183.255,188.945 181.089,184.778 181,179.5C 180.5,169.839 180.334,160.172 180.5,150.5C 170.494,150.666 160.494,150.5 150.5,150C 138.014,146.861 134.181,139.361 139,127.5C 140.873,125.291 143.04,123.458 145.5,122C 157.113,120.613 168.779,120.113 180.5,120.5C 180.117,109.112 180.617,97.7789 182,86.5C 183.996,82.0048 187.163,78.6715 191.5,76.5 Z M 100.5,226.5 C 137.502,226.333 174.502,226.5 211.5,227C 219.305,230.781 222.138,236.947 220,245.5C 217.794,251.192 213.627,254.359 207.5,255C 173.167,255.667 138.833,255.667 104.5,255C 93.9261,252.698 89.7594,246.198 92,235.5C 93.6878,231.315 96.5212,228.315 100.5,226.5 Z M 100.5,286.5 C 123.836,286.333 147.169,286.5 170.5,287C 181.466,293.852 182.8,302.185 174.5,312C 172.043,313.562 169.376,314.562 166.5,315C 145.833,315.667 125.167,315.667 104.5,315C 96.2914,313.624 91.6248,308.791 90.5,300.5C 91.4157,293.967 94.7491,289.3 100.5,286.5 Z M 104.5,345.5 C 121.837,345.333 139.17,345.5 156.5,346C 164.709,347.376 169.375,352.209 170.5,360.5C 169.226,366.596 165.893,371.096 160.5,374C 140.5,374.667 120.5,374.667 100.5,374C 90.9409,368.593 88.7742,361.093 94,351.5C 97.0688,348.554 100.569,346.554 104.5,345.5 Z"/></g>
<g><path style="opacity:0.985" fill="#000000" d="M 417.5,-0.5 C 424.5,-0.5 431.5,-0.5 438.5,-0.5C 461.148,5.31528 475.315,19.6486 481,42.5C 481.667,95.5 481.667,148.5 481,201.5C 478.993,206.838 475.159,210.004 469.5,211C 437.835,211.5 406.168,211.667 374.5,211.5C 374.037,154.81 374.537,98.1435 376,41.5C 382.016,19.6516 395.849,5.65164 417.5,-0.5 Z"/></g>
<g><path style="opacity:0.984" fill="#000000" d="M 362.5,511.5 C 351.5,511.5 340.5,511.5 329.5,511.5C 272.927,501.768 235.094,469.768 216,415.5C 202.186,360.906 215.352,314.073 255.5,275C 296.295,241.576 341.962,232.909 392.5,249C 445.08,270.613 474.58,309.78 481,366.5C 482.933,424.824 458.766,468.324 408.5,497C 393.829,504.327 378.495,509.161 362.5,511.5 Z M 341.5,301.5 C 352.887,300.229 359.22,305.229 360.5,316.5C 370.56,318.397 376.894,324.23 379.5,334C 377.989,345.174 371.656,349.841 360.5,348C 355.522,343.895 349.855,342.229 343.5,343C 339.234,344.366 337.734,347.199 339,351.5C 348.027,356.182 357.194,360.682 366.5,365C 388.382,380.749 391.882,399.915 377,422.5C 372.528,427.138 367.361,430.804 361.5,433.5C 360.245,443.086 354.912,448.753 345.5,450.5C 336.652,448.794 331.985,443.461 331.5,434.5C 323.289,433.376 316.123,430.043 310,424.5C 303.831,411.834 307.665,403.834 321.5,400.5C 327.167,402.667 332.833,404.833 338.5,407C 345.283,408.704 351.117,407.204 356,402.5C 358.506,397.361 357.339,393.194 352.5,390C 342.539,385.904 332.873,381.238 323.5,376C 305.202,358.369 304.869,340.369 322.5,322C 325.286,319.94 328.286,318.44 331.5,317.5C 331.308,309.869 334.642,304.536 341.5,301.5 Z"/></g>
</svg>
